modules/framework7-icons/icons/fastforward_round_fill.svg

<?xml version="1.0" encoding="UTF-8"?>
<svg width="50px" height="50px" viewBox="0 0 50 50" version="1.1" xmlns="http://www.w3.org/2000/svg" xmlns:xlink="http://www.w3.org/1999/xlink">
    <!-- Generator: Sketch 40.1 (33804) - http://www.bohemiancoding.com/sketch -->
    <title>fastforward_round_fill</title>
    <desc>Created with Sketch.</desc>
    <defs></defs>
    <g id="Page-1" stroke="none" stroke-width="1" fill="none" fill-rule="evenodd">
        <g id="fastforward_round_fill" fill="#000000">
            <path d="M25,50 C38.8071187,50 50,38.8071187 50,25 C50,11.1928813 38.8071187,0 25,0 C11.1928813,0 0,11.1928813 0,25 C0,38.8071187 11.1928813,50 25,50 Z M13.7336007,33.6928778 C12.7761595,34.2517044 12,33.8071074 12,32.6984746 L12,18.6102927 C12,17.5022724 12.7689451,17.0528521 13.7336007,17.6158895 L25.7724032,24.6425385 C26.7298444,25.2013652 26.7370587,26.1031914 25.7724032,26.6662288 L13.7336007,33.6928778 Z M28.2336007,33.6928778 C27.2761595,34.2517044 26.5,33.8071074 26.5,32.6984746 L26.5,18.6102927 C26.5,17.5022724 27.2689451,17.0528521 28.2336007,17.6158895 L40.2724032,24.6425385 C41.2298444,25.2013652 41.2370587,26.1031914 40.2724032,26.6662288 L28.2336007,33.6928778 Z" id="Combined-Shape"></path>
        </g>
    </g>
</svg>

<svg width="50" height="50" viewBox="0 0 50 50" xmlns="http://www.w3.org/2000/svg"><path d="M25 50c13.807 0 25-11.193 25-25S38.807 0 25 0 0 11.193 0 25s11.193 25 25 25zM13.734 33.693c-.958.559-1.734.114-1.734-.995V18.61c0-1.108.769-1.557 1.734-.994l12.038 7.027c.958.558.965 1.46 0 2.023l-12.038 7.027zm14.5 0c-.958.559-1.734.114-1.734-.995V18.61c0-1.108.769-1.557 1.734-.994l12.038 7.027c.958.558.965 1.46 0 2.023l-12.038 7.027z" fill="#000" fill-rule="evenodd"/></svg>
